svg/blobs-icons/no-decorations/bug.svg

<svg xmlns="http://www.w3.org/2000/svg" xmlns:xlink="http://www.w3.org/1999/xlink" preserveAspectRatio="xMidYMid" width="206" height="216" viewBox="0 0 206 216"><defs><style>.cls-3{fill:#142a3b}.cls-9{fill:#ff3a2f}.cls-10{fill:#ededed}.cls-11{fill:#060606;opacity:.35}</style></defs><g id="group-20svg"><path d="M37.646 98.417C36.711 98.417 35.761 98.233 34.845 97.846L10.941 87.71C7.287 86.16 5.582 81.944 7.131 78.291 8.681 74.638 12.893 72.931 16.55 74.481L40.454 84.617C44.108 86.166 45.813 90.383 44.264 94.036c-1.161 2.738-3.82 4.381-6.618 4.381z" id="path-1" class="cls-3" fill-rule="evenodd"/><path d="M20.195 197.647c-2.797.0-5.457-1.643-6.618-4.381C12.028 189.613 13.733 185.395 17.387 183.847L41.289 173.71C44.945 172.164 49.16 173.866 50.709 177.52 52.258 181.172 50.553 185.39 46.899 186.939L22.996 197.076C22.081 197.463 21.13 197.647 20.195 197.647z" id="path-2" class="cls-3" fill-rule="evenodd"/><path d="M7.194 143.243C3.298 143.243.099 140.127.014 136.213-.071 132.247 3.075 128.961 7.043 128.876L33.029 128.315C37.039 128.253 40.283 131.375 40.367 135.342 40.453 139.31 37.306 142.594 33.339 142.681L7.352 143.241C7.299 143.243 7.247 143.243 7.194 143.243z" id="path-3" class="cls-3" fill-rule="evenodd"/><path d="M168.354 98.417C165.556 98.417 162.897 96.774 161.736 94.036 160.187 90.383 161.892 86.166 165.546 84.617l23.905-10.136C193.104 72.931 197.319 74.638 198.87 78.291 200.419 81.944 198.714 86.16 195.06 87.71L171.155 97.846C170.24 98.233 169.289 98.417 168.354 98.417z" id="path-4" class="cls-3" fill-rule="evenodd"/><path d="M185.805 197.647C184.87 197.647 183.92 197.463 183.004 197.076L159.1 186.939C155.446 185.39 153.741 181.174 155.29 177.52 156.839 173.866 161.057 172.164 164.709 173.71l23.905 10.137C192.267 185.395 193.972 189.612 192.424 193.266 191.262 196.004 188.603 197.647 185.805 197.647z" id="path-5" class="cls-3" fill-rule="evenodd"/><path d="M198.805 143.243C198.752 143.243 198.7 143.243 198.646 143.241L172.662 142.681C168.694 142.594 165.548 139.31 165.633 135.342 165.719 131.375 169.033 128.241 172.971 128.315L198.956 128.876C202.924 128.961 206.07 132.247 205.984 136.213 205.9 140.127 202.701 143.243 198.805 143.243z" id="path-6" class="cls-3" fill-rule="evenodd"/><path d="M177.046 121.907c0 51.71-33.37 93.629-74.533 93.629-41.164.0-74.533-41.919-74.533-93.629s33.369-93.629 74.533-93.629c41.163.0 74.533 41.919 74.533 93.629z" id="path-7" class="cls-9" fill-rule="evenodd"/><path d="M54.161 171.712C52.947 171.712 51.761 171.096 51.086 169.983c-8.453-13.938-12.92-30.562-12.92-48.076C38.166 109.468 40.4 97.55 44.804 86.483 45.539 84.64 47.623 83.741 49.472 84.474 51.314 85.21 52.214 87.299 51.48 89.142c-4.067 10.216-6.13 21.24-6.13 32.765.0 16.199 4.108 31.537 11.878 44.351C58.258 167.953 57.716 170.164 56.02 171.191 55.438 171.544 54.796 171.712 54.161 171.712z" id="path-8" class="cls-10" fill-rule="evenodd"/><path d="M55.205 64.484C65.321 80.768 83.533 89.018 91.782 91.661V199.185S95.728 198.45 95.728 198.45s0-105.646.0-105.646S95.451 85.594 95.451 85.594c-13.945-2.663-40.246-21.11-40.246-21.11z" id="path-9" class="cls-11" fill-rule="evenodd"/><path d="M156.875 56.09c-13.598-18.421-32.916-29.946-54.362-29.946-21.447.0-40.764 11.525-54.362 29.946 12.087 16.374 28.698 27.278 47.3 29.504H95.385s0 129.942.0 129.942 16.126.0 16.126.0.0-129.942.0-129.942 2.009.0 2.009.0c18.603-2.226 31.268-13.13 43.355-29.504z" id="path-10" class="cls-10" fill-rule="evenodd"/><path d="M128.377 54.199C127.644 54.199 126.904 53.976 126.265 53.511 124.662 52.343 124.31 50.097 125.476 48.492l5.637-7.743C132.28 39.148 134.529 38.79 136.134 39.96 137.737 41.129 138.09 43.374 136.923 44.98L131.285 52.722C130.582 53.687 129.487 54.199 128.377 54.199z" id="path-11" class="cls-11" fill-rule="evenodd"/><path d="M88.423 48.267C87.076 48.267 85.783 47.506 85.171 46.205l-4.075-8.657C80.251 35.754 81.021 33.614 82.817 32.769 84.61 31.925 86.75 32.691 87.597 34.489L91.671 43.145C92.517 44.94 91.747 47.079 89.951 47.925 89.456 48.158 88.937 48.267 88.423 48.267z" id="path-12" class="cls-11" fill-rule="evenodd"/><path d="M127.083 49.672C126.109 49.672 125.122 49.409 124.234 48.855 121.71 47.28 120.942 43.956 122.517 41.43l18.265-29.262C142.357 9.645 145.683 8.875 148.207 10.45 150.731 12.025 151.499 15.35 149.925 17.875L131.659 47.137C130.638 48.774 128.881 49.672 127.083 49.672z" id="path-13" class="cls-3" fill-rule="evenodd"/><path d="M80.896 49.672C79.099 49.672 77.341 48.774 76.32 47.135L58.057 17.873C56.481 15.35 57.25 12.025 59.776 10.45 62.3 8.875 65.627 9.644 67.199 12.169L85.462 41.431C87.037 43.956 86.268 47.28 83.743 48.855 82.857 49.409 81.87 49.672 80.896 49.672z" id="path-14" class="cls-3" fill-rule="evenodd"/><path d="M159.857 13.073c0 7.22-5.893 13.071-13.161 13.071C139.427 26.144 133.535 20.293 133.535 13.073c0-7.218 5.892-13.07 13.161-13.07 7.268.0 13.161 5.852 13.161 13.07z" id="path-15" class="cls-3" fill-rule="evenodd"/><path d="M153.801 2.099C155.123 4.137 155.911 6.551 155.911 9.156c0 7.217-5.893 13.07-13.161 13.07C140.127 22.226 137.697 21.443 135.645 20.129 137.987 23.74 142.05 26.144 146.696 26.144c7.268.0 13.161-5.852 13.161-13.07C159.857 8.46 157.436 4.425 153.801 2.099z" id="path-16" class="cls-11" fill-rule="evenodd"/><path d="M72.834 13.073C72.834 20.293 66.942 26.144 59.673 26.144c-7.268.0-13.161-5.851-13.161-13.071.0-7.218 5.893-13.07 13.161-13.07C66.942.003 72.834 5.855 72.834 13.073z" id="path-17" class="cls-3" fill-rule="evenodd"/><path d="M55.736 13.073c0 2.169-1.77 3.927-3.955 3.927-2.183.0-3.953-1.758-3.953-3.927.0-2.168 1.77-3.926 3.953-3.926 2.185.0 3.955 1.758 3.955 3.926z" id="path-18" class="cls-10" fill-rule="evenodd"/><path d="M146.696 9.147C146.696 11.316 144.925 13.073 142.742 13.073 140.558 13.073 138.788 11.316 138.788 9.147S140.558 5.22 142.742 5.22C144.925 5.22 146.696 6.978 146.696 9.147z" id="path-19" class="cls-10" fill-rule="evenodd"/><path d="M59.673.003C58.997.003 58.349.103 57.7.201c6.325.951 11.188 6.326 11.188 12.873.0 6.546-4.863 11.921-11.188 12.872C58.349 26.044 58.997 26.144 59.673 26.144 66.942 26.144 72.834 20.292 72.834 13.074 72.834 5.855 66.942.003 59.673.003z" id="path-20" class="cls-11" fill-rule="evenodd"/><path d="M131.918 35.86C139.553 44.279 145.335 53.425 149.728 65.093c-16.784 18.036-28.258 20.103-38.217 20.501V92.804S114.194 92.804 114.194 92.804c14.402.0 40.436-14.481 37.534-22.134C155.32 81.635 157.317 93.636 157.317 106.232c0 51.71-33.37 93.629-74.533 93.629C72.34 199.861 62.402 197.151 53.379 192.279c13.12 14.466 30.305 23.257 49.134 23.257 41.163.0 74.534-41.92 74.534-93.629.0-38.59-18.59-71.717-45.129-86.047z" id="path-21" class="cls-11" fill-rule="evenodd"/></g></svg>

<svg xmlns="http://www.w3.org/2000/svg" xmlns:xlink="http://www.w3.org/1999/xlink" preserveAspectRatio="xMidYMid" width="206" height="216" viewBox="0 0 206 216">
  <defs>
    <style>

      .cls-3 {
        fill: #142a3b;
      }

      .cls-9 {
        fill: #ff3a2f;
      }

      .cls-10 {
        fill: #ededed;
      }

      .cls-11 {
        fill: #060606;
        opacity: 0.35;
      }
    </style>
  </defs>
  <g id="group-20svg">
    <path d="M37.646,98.417 C36.711,98.417 35.761,98.233 34.845,97.846 C34.845,97.846 10.941,87.710 10.941,87.710 C7.287,86.160 5.582,81.944 7.131,78.291 C8.681,74.638 12.893,72.931 16.550,74.481 C16.550,74.481 40.454,84.617 40.454,84.617 C44.108,86.166 45.813,90.383 44.264,94.036 C43.103,96.774 40.444,98.417 37.646,98.417 Z" id="path-1" class="cls-3" fill-rule="evenodd"/>
    <path d="M20.195,197.647 C17.398,197.647 14.738,196.004 13.577,193.266 C12.028,189.613 13.733,185.395 17.387,183.847 C17.387,183.847 41.289,173.710 41.289,173.710 C44.945,172.164 49.160,173.866 50.709,177.520 C52.258,181.172 50.553,185.390 46.899,186.939 C46.899,186.939 22.996,197.076 22.996,197.076 C22.081,197.463 21.130,197.647 20.195,197.647 Z" id="path-2" class="cls-3" fill-rule="evenodd"/>
    <path d="M7.194,143.243 C3.298,143.243 0.099,140.127 0.014,136.213 C-0.071,132.247 3.075,128.961 7.043,128.876 C7.043,128.876 33.029,128.315 33.029,128.315 C37.039,128.253 40.283,131.375 40.367,135.342 C40.453,139.310 37.306,142.594 33.339,142.681 C33.339,142.681 7.352,143.241 7.352,143.241 C7.299,143.243 7.247,143.243 7.194,143.243 Z" id="path-3" class="cls-3" fill-rule="evenodd"/>
    <path d="M168.354,98.417 C165.556,98.417 162.897,96.774 161.736,94.036 C160.187,90.383 161.892,86.166 165.546,84.617 C165.546,84.617 189.451,74.481 189.451,74.481 C193.104,72.931 197.319,74.638 198.870,78.291 C200.419,81.944 198.714,86.160 195.060,87.710 C195.060,87.710 171.155,97.846 171.155,97.846 C170.240,98.233 169.289,98.417 168.354,98.417 Z" id="path-4" class="cls-3" fill-rule="evenodd"/>
    <path d="M185.805,197.647 C184.870,197.647 183.920,197.463 183.004,197.076 C183.004,197.076 159.100,186.939 159.100,186.939 C155.446,185.390 153.741,181.174 155.290,177.520 C156.839,173.866 161.057,172.164 164.709,173.710 C164.709,173.710 188.614,183.847 188.614,183.847 C192.267,185.395 193.972,189.612 192.424,193.266 C191.262,196.004 188.603,197.647 185.805,197.647 Z" id="path-5" class="cls-3" fill-rule="evenodd"/>
    <path d="M198.805,143.243 C198.752,143.243 198.700,143.243 198.646,143.241 C198.646,143.241 172.662,142.681 172.662,142.681 C168.694,142.594 165.548,139.310 165.633,135.342 C165.719,131.375 169.033,128.241 172.971,128.315 C172.971,128.315 198.956,128.876 198.956,128.876 C202.924,128.961 206.070,132.247 205.984,136.213 C205.900,140.127 202.701,143.243 198.805,143.243 Z" id="path-6" class="cls-3" fill-rule="evenodd"/>
    <path d="M177.046,121.907 C177.046,173.617 143.676,215.536 102.513,215.536 C61.349,215.536 27.980,173.617 27.980,121.907 C27.980,70.197 61.349,28.278 102.513,28.278 C143.676,28.278 177.046,70.197 177.046,121.907 Z" id="path-7" class="cls-9" fill-rule="evenodd"/>
    <path d="M54.161,171.712 C52.947,171.712 51.761,171.096 51.086,169.983 C42.633,156.045 38.166,139.421 38.166,121.907 C38.166,109.468 40.400,97.550 44.804,86.483 C45.539,84.640 47.623,83.741 49.472,84.474 C51.314,85.210 52.214,87.299 51.480,89.142 C47.413,99.358 45.350,110.382 45.350,121.907 C45.350,138.106 49.458,153.444 57.228,166.258 C58.258,167.953 57.716,170.164 56.020,171.191 C55.438,171.544 54.796,171.712 54.161,171.712 Z" id="path-8" class="cls-10" fill-rule="evenodd"/>
    <path d="M55.205,64.484 C65.321,80.768 83.533,89.018 91.782,91.661 C91.782,91.661 91.782,199.185 91.782,199.185 C91.782,199.185 95.728,198.450 95.728,198.450 C95.728,198.450 95.728,92.804 95.728,92.804 C95.728,92.804 95.451,85.594 95.451,85.594 C81.506,82.931 55.205,64.484 55.205,64.484 Z" id="path-9" class="cls-11" fill-rule="evenodd"/>
    <path d="M156.875,56.090 C143.277,37.669 123.959,26.144 102.513,26.144 C81.066,26.144 61.749,37.669 48.151,56.090 C60.238,72.464 76.849,83.368 95.451,85.594 C95.451,85.594 95.385,85.594 95.385,85.594 C95.385,85.594 95.385,215.536 95.385,215.536 C95.385,215.536 111.511,215.536 111.511,215.536 C111.511,215.536 111.511,85.594 111.511,85.594 C111.511,85.594 113.520,85.594 113.520,85.594 C132.123,83.368 144.788,72.464 156.875,56.090 Z" id="path-10" class="cls-10" fill-rule="evenodd"/>
    <path d="M128.377,54.199 C127.644,54.199 126.904,53.976 126.265,53.511 C124.662,52.343 124.310,50.097 125.476,48.492 C125.476,48.492 131.113,40.749 131.113,40.749 C132.280,39.148 134.529,38.790 136.134,39.960 C137.737,41.129 138.090,43.374 136.923,44.980 C136.923,44.980 131.285,52.722 131.285,52.722 C130.582,53.687 129.487,54.199 128.377,54.199 Z" id="path-11" class="cls-11" fill-rule="evenodd"/>
    <path d="M88.423,48.267 C87.076,48.267 85.783,47.506 85.171,46.205 C85.171,46.205 81.096,37.548 81.096,37.548 C80.251,35.754 81.021,33.614 82.817,32.769 C84.610,31.925 86.750,32.691 87.597,34.489 C87.597,34.489 91.671,43.145 91.671,43.145 C92.517,44.940 91.747,47.079 89.951,47.925 C89.456,48.158 88.937,48.267 88.423,48.267 Z" id="path-12" class="cls-11" fill-rule="evenodd"/>
    <path d="M127.083,49.672 C126.109,49.672 125.122,49.409 124.234,48.855 C121.710,47.280 120.942,43.956 122.517,41.430 C122.517,41.430 140.782,12.168 140.782,12.168 C142.357,9.645 145.683,8.875 148.207,10.450 C150.731,12.025 151.499,15.350 149.925,17.875 C149.925,17.875 131.659,47.137 131.659,47.137 C130.638,48.774 128.881,49.672 127.083,49.672 Z" id="path-13" class="cls-3" fill-rule="evenodd"/>
    <path d="M80.896,49.672 C79.099,49.672 77.341,48.774 76.320,47.135 C76.320,47.135 58.057,17.873 58.057,17.873 C56.481,15.350 57.250,12.025 59.776,10.450 C62.300,8.875 65.627,9.644 67.199,12.169 C67.199,12.169 85.462,41.431 85.462,41.431 C87.037,43.956 86.268,47.280 83.743,48.855 C82.857,49.409 81.870,49.672 80.896,49.672 Z" id="path-14" class="cls-3" fill-rule="evenodd"/>
    <path d="M159.857,13.073 C159.857,20.293 153.964,26.144 146.696,26.144 C139.427,26.144 133.535,20.293 133.535,13.073 C133.535,5.855 139.427,0.003 146.696,0.003 C153.964,0.003 159.857,5.855 159.857,13.073 Z" id="path-15" class="cls-3" fill-rule="evenodd"/>
    <path d="M153.801,2.099 C155.123,4.137 155.911,6.551 155.911,9.156 C155.911,16.373 150.018,22.226 142.750,22.226 C140.127,22.226 137.697,21.443 135.645,20.129 C137.987,23.740 142.050,26.144 146.696,26.144 C153.964,26.144 159.857,20.292 159.857,13.074 C159.857,8.460 157.436,4.425 153.801,2.099 Z" id="path-16" class="cls-11" fill-rule="evenodd"/>
    <path d="M72.834,13.073 C72.834,20.293 66.942,26.144 59.673,26.144 C52.405,26.144 46.512,20.293 46.512,13.073 C46.512,5.855 52.405,0.003 59.673,0.003 C66.942,0.003 72.834,5.855 72.834,13.073 Z" id="path-17" class="cls-3" fill-rule="evenodd"/>
    <path d="M55.736,13.073 C55.736,15.242 53.966,17.000 51.781,17.000 C49.598,17.000 47.828,15.242 47.828,13.073 C47.828,10.905 49.598,9.147 51.781,9.147 C53.966,9.147 55.736,10.905 55.736,13.073 Z" id="path-18" class="cls-10" fill-rule="evenodd"/>
    <path d="M146.696,9.147 C146.696,11.316 144.925,13.073 142.742,13.073 C140.558,13.073 138.788,11.316 138.788,9.147 C138.788,6.978 140.558,5.220 142.742,5.220 C144.925,5.220 146.696,6.978 146.696,9.147 Z" id="path-19" class="cls-10" fill-rule="evenodd"/>
    <path d="M59.673,0.003 C58.997,0.003 58.349,0.103 57.700,0.201 C64.025,1.152 68.888,6.527 68.888,13.074 C68.888,19.620 64.025,24.995 57.700,25.946 C58.349,26.044 58.997,26.144 59.673,26.144 C66.942,26.144 72.834,20.292 72.834,13.074 C72.834,5.855 66.942,0.003 59.673,0.003 Z" id="path-20" class="cls-11" fill-rule="evenodd"/>
    <path d="M131.918,35.860 C139.553,44.279 145.335,53.425 149.728,65.093 C132.944,83.129 121.470,85.196 111.511,85.594 C111.511,85.594 111.511,92.804 111.511,92.804 C111.511,92.804 114.194,92.804 114.194,92.804 C128.596,92.804 154.630,78.323 151.728,70.670 C155.320,81.635 157.317,93.636 157.317,106.232 C157.317,157.942 123.947,199.861 82.784,199.861 C72.340,199.861 62.402,197.151 53.379,192.279 C66.499,206.745 83.684,215.536 102.513,215.536 C143.676,215.536 177.047,173.616 177.047,121.907 C177.047,83.317 158.457,50.190 131.918,35.860 Z" id="path-21" class="cls-11" fill-rule="evenodd"/>
  </g>
</svg>
